X: 33
T: Missa brevis &mdash; Sanctus
C: Gaspar van Weerbeke
%%abc-version 2.0
%%abcx-abcm2ps-target-version 5.9.1 (29 Sep 2008)
%%abc-creator hum2abc beta
%%abcx-conversion-date 2022/03/06 13:05:56
%%abc-copyright Copyright 2016, Kolb, Paul
%%abc-edited-by Zybina, Karina
%%humdrum-veritas 3836694383
%%humdrum-veritas-data 483042993
%%linebreak <none>
%%barnumbers 0
L: 1/4
M: 2/2
N: Derived from Gas0201d-Missa_brevis-Sanctus.krn
%%staves [1 2 3 4]
V: 1 clef=treble
V: 2 clef=treble-8
V: 3 clef=treble-8
V: 4 clef=bass
K: F
[V:1] z4 | 
[V:2] z4 | 
[V:3] z2G2 | 
[V:4] G,4- | 
[V:1] z2G2 | 
[V:2] G2B3/c/ | 
[V:3] B>cd_e | 
[V:4] G,4- | 
[V:1] B>cd_e | 
[V:2] d_edg- | 
[V:3] d>c B/A/G | 
[V:4] G,4- | 
[V:1] d3c/B/ | 
[V:2] gf/_e/dg | 
[V:3] zB>cd/e/ | 
[V:4] G,4 | 
[V:1] A>Bc2 | 
[V:2] c2A2 | 
[V:3] f3e/d/ | 
[V:4] F,4- | 
[V:1] zA2=B | 
[V:2] F2fd | 
[V:3] c2d2 | 
[V:4] F,2D,2 | 
[V:1] c>deA- | 
[V:2] g>fed | 
[V:3] e3f- | 
[V:4] C,3D, | 
[V:1] ABc/B/A/G/ | 
[V:2] cBG2 | 
[V:3] fd2^c | 
[V:4] F,G,E,2 | 
[V:1] F3/G//A//BA- | 
[V:2] A>Ff3/_e/ | 
[V:3] d3c | 
[V:4] D,2B,,C, | 
[V:1] AG2^F | 
[V:2] d/B/cd2 | 
[V:3] BGA2 | 
[V:4] D,_E,D,2 | 
[V:1] G3F/_E/ | 
[V:2] B2B3/c/ | 
[V:3] G2G3/A/ | 
[V:4] _E,3D,/C,/ | 
[V:1] D_E>FG | 
[V:2] dcG2 | 
[V:3] BGc2 | 
[V:4] B,,C,2_E, | 
[V:1] FG>AB- | 
[V:2] BcBd- | 
[V:3] d_ed2 | 
[V:4] D,C,G,2 | 
[V:1] BA/G/c2 | 
[V:2] dBA2 | 
[V:3] Gdef | 
[V:4] zG,2F, | 
[V:1] B2_e2 | 
[V:2] G2z2 | 
[V:3] dg3- | 
[V:4] G,2C,2 | 
[V:1] dc=B/A/=B | 
[V:2] z4 | 
[V:3] g_ed2 | 
[V:4] B,,C,G,2 | 
[V:1] c2_ed- | 
[V:2] z4 | 
[V:3] c2z2 | 
[V:4] zC,2B,, | 
[V:1] dc/B/A2 | 
[V:2] z2c3/d/ | 
[V:3] z4 | 
[V:4] B,A,/G,/F,2 | 
[V:1] GFD2 | 
[V:2] _ed2c/B/ | 
[V:3] z4 | 
[V:4] zB,,>C,D,/_E,/ | 
[V:1] z4 | 
[V:2] A2GB- | 
[V:3] z4 | 
[V:4] F,2_E,D, | 
[V:1] z4 | 
[V:2] B/c/d/e/f2 | 
[V:3] z4 | 
[V:4] G,>F,D,2 | 
[V:1] z4 | 
[V:2] edg3/f/ | 
[V:3] z4 | 
[V:4] zB,2A,/G,/ | 
[V:1] z4 | 
[V:2] d2zb- | 
[V:3] z4 | 
[V:4] F,G,F,G,- | 
[V:1] z4 | 
[V:2] ba/g/fg | 
[V:3] z4 | 
[V:4] G,B,A,G, | 
[V:1] z4 | 
[V:2] fg>fe/d/ | 
[V:3] z4 | 
[V:4] B,>A,G,A,- | 
[V:1] z4 | 
[V:2] ed2^c | 
[V:3] z4 | 
[V:4] A,F,E,2 | 
[V:1] A4- | 
[V:2] d2z2 | 
[V:3] f3f | 
[V:4] D,2z2 | 
[V:1] A2A2 | 
[V:2] d>e f/g/a- | 
[V:3] f>ed3/c/ | 
[V:4] D,>C, D,/E,/F,- | 
[V:1] A4 | 
[V:2] a/g/^f/e/^f2 | 
[V:3] A2d2 | 
[V:4] F,/E,/D,/C,/D,2 | 
[V:1] B4- | 
[V:2] g2fg- | 
[V:3] B>cdG- | 
[V:4] G,>F,D,_E,- | 
[V:1] B4 | 
[V:2] gf/_e/dG | 
[V:3] G/A/B/c/dg- | 
[V:4] E,D,/C,/B,,_E,- | 
[V:1] B4 | 
[V:2] zg>fe/d/ | 
[V:3] g_ed2 | 
[V:4] E,D,/C,/G,2 | 
[V:1] c4- | 
[V:2] e>fga | 
[V:3] c2zc | 
[V:4] C,>D,E,F,- | 
[V:1] c4 | 
[V:2] f2e2 | 
[V:3] AFc3/d/ | 
[V:4] F,/G,<A,B,/C- | 
[V:1] c4 | 
[V:2] z2c2 | 
[V:3] e/f/g2^f | 
[V:4] C/B,/A,/G,/A,2 | 
[V:1] B>c d/_e/d- | 
[V:2] d2B3/c/ | 
[V:3] g3f/e/ | 
[V:4] G,G,2G,- | 
[V:1] df2e/d/ | 
[V:2] d>e f/g/a- | 
[V:3] d3f | 
[V:4] G,F,/E,/D,2 | 
[V:1] cd2^c | 
[V:2] aga2 | 
[V:3] ede2 | 
[V:4] A,B,A,2 | 
[V:1] d>cAc- | 
[V:2] f2z2 | 
[V:3] d2f3/e/ | 
[V:4] B,>A,F,2- | 
[V:1] cB/A/GB- | 
[V:2] f2B3/G/ | 
[V:3] c>d_e3/d/ | 
[V:4] F,2_E,2- | 
[V:1] BA/G/FA- | 
[V:2] G2A2 | 
[V:3] B>cd2 | 
[V:4] E,2D,F,- | 
[V:1] AG/F/E2 | 
[V:2] zFG3/A/ | 
[V:3] A>Bc3/B/ | 
[V:4] F,E,/D,/ C,/D,/E,/F,/ | 
[V:1] DG2^F | 
[V:2] BGd2 | 
[V:3] GBA2 | 
[V:4] G,2D,2 | 
[V:1] G4 ||  
[V:2] d4 ||  
[V:3] G4 ||  
[V:4] G,4 ||  
[V:1] [M:2/2]F2F/G/A/B/ | 
[V:2] [M:2/2]d4- | 
[V:3] [M:2/2]z4 | 
[V:4] [M:2/2]z4 | 
[V:1] ABAd | 
[V:2] d4 | 
[V:3] z4 | 
[V:4] z4 | 
[V:1] G2C/D/_E/F/ | 
[V:2] _e4- | 
[V:3] z4 | 
[V:4] z4 | 
[V:1] GCG3/A/ | 
[V:2] e4 | 
[V:3] z4 | 
[V:4] z4 | 
[V:1] BAd2 | 
[V:2] d2d/e/f/g/ | 
[V:3] z4 | 
[V:4] z4 | 
[V:1] d2d2 | 
[V:2] fgd/e/f/g/ | 
[V:3] z4 | 
[V:4] z4 | 
[V:1] _e4- | 
[V:2] c2c/d/_e/f/ | 
[V:3] z4 | 
[V:4] z4 | 
[V:1] e2_e2 | 
[V:2] gcg3/a/ | 
[V:3] z4 | 
[V:4] z4 | 
[V:1] d3c/B/ | 
[V:2] b3a/g/ | 
[V:3] z4 | 
[V:4] z4 | 
[V:1] AGA2 | 
[V:2] fg2^f | 
[V:3] z4 | 
[V:4] z4 | 
[V:1] GB>Ac- | 
[V:2] g>fd_e- | 
[V:3] z4 | 
[V:4] z4 | 
[V:1] c/B/A/G<^FE/ | 
[V:2] e/d/c/B/A2 | 
[V:3] z4 | 
[V:4] z4 | 
[V:1] G4 | 
[V:2] G>A B/G/c- | 
[V:3] z4 | 
[V:4] z4 | 
[V:1] A4 | 
[V:2] c/B/A/G<^FE/ | 
[V:3] z4 | 
[V:4] z4 | 
[V:1] G4 | 
[V:2] G4 | 
[V:3] B4- | 
[V:4] G,3F,/E,/ | 
[V:1] z4 | 
[V:2] z4 | 
[V:3] B2B2 | 
[V:4] D,G,>F,E,/D,/ | 
[V:1] z4 | 
[V:2] z4 | 
[V:3] c3A | 
[V:4] C,F,E,F, | 
[V:1] z4 | 
[V:2] z4 | 
[V:3] Bd2e | 
[V:4] G,3F,/E,/ | 
[V:1] z4 | 
[V:2] z4 | 
[V:3] f2e2 | 
[V:4] D,2C,2 | 
[V:1] z4 | 
[V:2] z4 | 
[V:3] df2e/d/ | 
[V:4] zD,>E,F,/G,/ | 
[V:1] z4 | 
[V:2] z4 | 
[V:3] c2df- | 
[V:4] A,2B,2 | 
[V:1] z4 | 
[V:2] z4 | 
[V:3] f/e<gf/e/d/ | 
[V:4] A,B,>A,G,/F,/ | 
[V:1] z4 | 
[V:2] z4 | 
[V:3] ^c2d2 | 
[V:4] E,2D,2 | 
[V:1] z4 | 
[V:2] z4 | 
[V:3] B2c2 | 
[V:4] G,2E,F,- | 
[V:1] z4 | 
[V:2] z4 | 
[V:3] d2Bc- | 
[V:4] F,/E,/D,/C,/D,_E,- | 
[V:1] z4 | 
[V:2] z4 | 
[V:3] c/B/A/G/A2 | 
[V:4] E,/D,/G,2^F, | 
[V:1] z4 | 
[V:2] z4 | 
[V:3] G4 | 
[V:4] G,4 | 
[V:1] B4 | 
[V:2] f4 | 
[V:3] d4 | 
[V:4] D,2B,,2 | 
[V:1] A4 | 
[V:2] f4 | 
[V:3] c2A2 | 
[V:4] F,4 | 
[V:1] G4 | 
[V:2] d2_e2 | 
[V:3] B2c2 | 
[V:4] G,2C,2 | 
[V:1] F4 | 
[V:2] d4 | 
[V:3] A2F3/G/ | 
[V:4] D,4 | 
[V:1] z2F3/G/ | 
[V:2] c2d2 | 
[V:3] A2B2 | 
[V:4] F,2B,,2 | 
[V:1] A2B2 | 
[V:2] c2B2 | 
[V:3] A2d2 | 
[V:4] F,2G,2 | 
[V:1] A2d2 | 
[V:2] F3G | 
[V:3] c2f2 | 
[V:4] A,2D,2 | 
[V:1] c2f2 | 
[V:2] A2za- | 
[V:3] e2dd- | 
[V:4] z2D,2 | 
[V:1] e2dd- | 
[V:2] a2fg | 
[V:3] dcd2 | 
[V:4] A,2B,2 | 
[V:1] dcdB | 
[V:2] a2zd- | 
[V:3] e2dg- | 
[V:4] A,2B,G, | 
[V:1] A2Gc- | 
[V:2] d2=Bc | 
[V:3] gfge | 
[V:4] D,2E,C, | 
[V:1] c=BcA | 
[V:2] G2zc- | 
[V:3] d2cf- | 
[V:4] G,2A,F, | 
[V:1] G2FB- | 
[V:2] c2AB | 
[V:3] fefd | 
[V:4] C,2D,B,, | 
[V:1] BABG | 
[V:2] Ffde | 
[V:3] c2Bc | 
[V:4] F,2G,E, | 
[V:1] F>GAB | 
[V:2] fdcd- | 
[V:3] d>efg | 
[V:4] D,B,A,G, | 
[V:1] AB2A/G/ | 
[V:2] d/e/fBd- | 
[V:3] fd2c/B/ | 
[V:4] D,2G,2 | 
[V:1] FG2^F | 
[V:2] dcd2 | 
[V:3] AGA2 | 
[V:4] D,_E,D,2 | 
[V:1] G4 ||  
[V:2] d4 ||  
[V:3] G4 ||  
[V:4] G,4 ||  
[V:1] [M:2/2]z4 | 
[V:2] [M:2/2]g2gg- | 
[V:3] [M:2/2]z4 | 
[V:4] [M:2/2]z4 | 
[V:1] d2dd- | 
[V:2] gfg2 | 
[V:3] z4 | 
[V:4] z4 | 
[V:1] dcd2 | 
[V:2] e2d2 | 
[V:3] z4 | 
[V:4] z4 | 
[V:1] B2A2 | 
[V:2] g2fd- | 
[V:3] z4 | 
[V:4] z4 | 
[V:1] d2cA- | 
[V:2] dc/B/A2 | 
[V:3] z4 | 
[V:4] z4 | 
[V:1] A/G/FE2 | 
[V:2] d2cA- | 
[V:3] z4 | 
[V:4] z4 | 
[V:1] A2GE- | 
[V:2] A/B/c2B/A/ | 
[V:3] z4 | 
[V:4] z4 | 
[V:1] E/F/G2F/E/ | 
[V:2] G2B2- | 
[V:3] z4 | 
[V:4] z4 | 
[V:1] DG2^F | 
[V:2] BcA2 | 
[V:3] z4 | 
[V:4] z4 | 
[V:1] G4 | 
[V:2] G2zg- | 
[V:3] z4 | 
[V:4] z4 | 
[V:1] zd2c/B/ | 
[V:2] gf/e/dg | 
[V:3] z4 | 
[V:4] z4 | 
[V:1] Adcd | 
[V:2] fged | 
[V:3] z4 | 
[V:4] z4 | 
[V:1] BAdc- | 
[V:2] gfga- | 
[V:3] z4 | 
[V:4] z4 | 
[V:1] cBA2 | 
[V:2] a/g/g2^f | 
[V:3] z4 | 
[V:4] z4 | 
[V:1] G4- | 
[V:2] g4 | 
[V:3] z2G2- | 
[V:4] z4 | 
[V:1] G4 | 
[V:2] z4 | 
[V:3] GABc | 
[V:4] z4 | 
[V:1] z4 | 
[V:2] z4 | 
[V:3] Ad2c/B/ | 
[V:4] z2D,2- | 
[V:1] z4 | 
[V:2] z4 | 
[V:3] AGA2 | 
[V:4] D,E,F,3/G,/ | 
[V:1] z4 | 
[V:2] z4 | 
[V:3] Gf2e/d/ | 
[V:4] E,A,2G,/F,/ | 
[V:1] z4 | 
[V:2] z4 | 
[V:3] cd2G- | 
[V:4] E,F,D,B,- | 
[V:1] z4 | 
[V:2] z4 | 
[V:3] GBAG | 
[V:4] B,A,/G,/F,G,- | 
[V:1] z4 | 
[V:2] z4 | 
[V:3] B>AFG | 
[V:4] G,B,A,G, | 
[V:1] z4 | 
[V:2] z4 | 
[V:3] d>efe- | 
[V:4] B,>A,F,G,- | 
[V:1] z4 | 
[V:2] z4 | 
[V:3] ed2^c | 
[V:4] G,F,E,2 | 
[V:1] z4 | 
[V:2] z4 | 
[V:3] d3f- | 
[V:4] D,>E, F,/G,/A, | 
[V:1] z4 | 
[V:2] z4 | 
[V:3] f_e/d/ c/B/d- | 
[V:4] D,F,>G,B, | 
[V:1] z4 | 
[V:2] z2a2 | 
[V:3] dc/B/A2 | 
[V:4] A,G,2^F, | 
[V:1] z4 | 
[V:2] b3b | 
[V:3] G4 | 
[V:4] G,4 | 
[V:1] z2c2 | 
[V:2] b>ga2 | 
[V:3] z4 | 
[V:4] z4 | 
[V:1] d3d | 
[V:2] g2d2 | 
[V:3] z4 | 
[V:4] z4 | 
[V:1] d2c2- | 
[V:2] f3f | 
[V:3] z4 | 
[V:4] D,2F,2- | 
[V:1] cA2G/F/ | 
[V:2] f>_ecd- | 
[V:3] z4 | 
[V:4] F,F,F,3/D,/ | 
[V:1] G2F3/G/ | 
[V:2] dcd3/e/ | 
[V:3] G2A2- | 
[V:4] _E,2D,2 | 
[V:1] A/B/c2A | 
[V:2] fec2 | 
[V:3] AAA2 | 
[V:4] z2F,2 | 
[V:1] B2GA | 
[V:2] Bd2_e | 
[V:3] GB2c | 
[V:4] G,3F,/_E,/ | 
[V:1] B2cd- | 
[V:2] fB>AF | 
[V:3] d2_ef- | 
[V:4] D,G,>F,D, | 
[V:1] dB2A | 
[V:2] zf3 | 
[V:3] fdc2 | 
[V:4] B,2F,2 | 
[V:1] B2z2 | 
[V:2] d2f3/_e/ | 
[V:3] B2d2 | 
[V:4] B,,4- | 
[V:1] d2f2 | 
[V:2] d/c/d2B | 
[V:3] f>_e d/c/d | 
[V:4] B,,4 | 
[V:1] _ed2c/B/ | 
[V:2] cd2e | 
[V:3] cBG2 | 
[V:4] z4 | 
[V:1] Ac>BA/G/ | 
[V:2] f>ec2 | 
[V:3] F>G A/B/c | 
[V:4] zF,>G,A, | 
[V:1] F/E/D/C/DE- | 
[V:2] zABG- | 
[V:3] d2Bc- | 
[V:4] D,2G,C, | 
[V:1] E/F/G2^F | 
[V:2] G/A/B/c/d2 | 
[V:3] c/B/GA2 | 
[V:4] E,2D,2 | 
[V:1] [M:3/2]G4B2 | 
[V:2] [M:3/2]B4G2 | 
[V:3] [M:3/2]G4G2 | 
[V:4] [M:3/2]z2z2G,2 | 
[V:1] c2>d2e2 | 
[V:2] z2z2g2 | 
[V:3] A2>B2c2 | 
[V:4] F,4E,2 | 
[V:1] A4c2 | 
[V:2] f2>d2e2 | 
[V:3] d4A2 | 
[V:4] D,4z2 | 
[V:1] B2>G2A2 | 
[V:2] d2>e2f2 | 
[V:3] B2G2d2 | 
[V:4] z2z2D,2 | 
[V:1] GABcd2 | 
[V:2] g4d3/e/ | 
[V:3] G4B2 | 
[V:4] E,>F,G,4 | 
[V:1] c4=B2 | 
[V:2] f2g4 | 
[V:3] c2d4 | 
[V:4] A,2G,4 | 
[V:1] c4z2 | 
[V:2] e4g2 | 
[V:3] c4e2 | 
[V:4] A,4G,2 | 
[V:1] c2>d2e2 | 
[V:2] a4g2 | 
[V:3] f4e2 | 
[V:4] F,4C,2 | 
[V:1] f4e2 | 
[V:2] f4g2 | 
[V:3] d4g2- | 
[V:4] D,4E,2 | 
[V:1] d2f4 | 
[V:2] G2d4 | 
[V:3] g2a4 | 
[V:4] G,2D,4 | 
[V:1] g2e3d | 
[V:2] =B4c2 | 
[V:3] g6 | 
[V:4] E,4C,2 | 
[V:1] d4^c2 | 
[V:2] A>Bc2A2 | 
[V:3] f2e4 | 
[V:4] D,2A,4 | 
[V:1] d6 | 
[V:2] A4A2 | 
[V:3] d6 | 
[V:4] D,4F,2 | 
[V:1] z2z2d2 | 
[V:2] B2c2A2 | 
[V:3] e4f2 | 
[V:4] G,2C,2D,2 | 
[V:1] e4f2 | 
[V:2] G2A2d2 | 
[V:3] g2c2d2 | 
[V:4] z6 | 
[V:1] g2c2d2 | 
[V:2] c4G2 | 
[V:3] e4d2 | 
[V:4] C4B,2 | 
[V:1] e4f2 | 
[V:2] d4c2 | 
[V:3] g4f2 | 
[V:4] G,2A,4 | 
[V:1] B2c2d2 | 
[V:2] d2c2G2 | 
[V:3] g2e2d2 | 
[V:4] G,2A,2B,2 | 
[V:1] G2>A2B2 | 
[V:2] cdefg2 | 
[V:3] e4d2- | 
[V:4] C4G,2 | 
[V:1] F2G2A2 | 
[V:2] a2g2c2- | 
[V:3] d2B2c2 | 
[V:4] D,2G,2F,2 | 
[V:1] G4^F2 | 
[V:2] c2d4 | 
[V:3] G2A4 | 
[V:4] _E,2D,4 | 
[V:1] G4 |]  
[V:2] d4 |]  
[V:3] G4 |]  
[V:4] G,4 |]  


